X: 3
T: Salvation, The
C: Simon Bradley
Z: FiddleCastro
S: https://thesession.org/tunes/199#setting47728
R: reel
M: 4/4
L: 1/8
K: Amaj
|:EGAE GAEG|AecA BAFA|B3B- BAFA|dAcA BAFA|
EGAE GAEG|AecA BAFA|c3A BcAF|EFAB cA~A2:|
|:BceB ceBc|effe cBce|f3f- fece|agae fecB|
cdec defg|agae fece|fecA B2AB|cBAE FAA2:|

%-------------------- TUNE SEPARATOR --------------------%

